src/assets/images/landing/thirdPartyLogos/gitbook_blue.svg

<svg width="105" height="22" viewBox="0 0 105 22" fill="none" xmlns="http://www.w3.org/2000/svg">
<path d="M13.3429 18.0498C13.8679 18.0498 14.1829 18.4698 14.1829 18.8898C14.1829 19.4148 13.7629 19.7298 13.3429 19.7298C12.8179 19.7298 12.5029 19.3098 12.5029 18.8898C12.5029 18.4698 12.8179 18.0498 13.3429 18.0498ZM27.0979 12.6948C26.5729 12.6948 26.2579 12.2748 26.2579 11.8548C26.2579 11.4348 26.6779 11.0148 27.0979 11.0148C27.6229 11.0148 27.9379 11.4348 27.9379 11.8548C27.9379 12.2748 27.5179 12.6948 27.0979 12.6948ZM27.0979 9.12483C25.6279 9.12483 24.3679 10.3848 24.3679 11.8548C24.3679 12.1698 24.3679 12.4848 24.4729 12.6948L15.5479 17.4198C15.0229 16.6848 14.1829 16.2648 13.3429 16.2648C12.2929 16.2648 11.3479 16.8948 10.9279 17.7348L2.94794 13.5348C2.10794 13.1148 1.47794 11.6448 1.58294 10.3848C1.58294 9.75483 1.89794 9.22983 2.21294 9.01983C2.42294 8.91483 2.73794 8.91483 2.94794 9.01983H3.05294C5.15294 10.1748 12.1879 13.7448 12.3979 13.9548C12.8179 14.1648 13.1329 14.2698 13.8679 13.8498L28.2529 6.39483C28.4629 6.28983 28.6729 6.07983 28.6729 5.76483C28.6729 5.34483 28.2529 5.13483 28.2529 5.13483C27.4129 4.71483 26.1529 4.18983 24.9979 3.55983C22.3729 2.29983 19.4329 0.934827 18.0679 0.304827C16.9129 -0.325173 16.0729 0.199827 15.8629 0.304827L15.5479 0.409828C9.66794 3.34983 1.79294 7.23483 1.37294 7.44483C0.532941 7.96983 0.112942 8.91483 0.00794189 10.0698C-0.0970581 11.9598 0.847942 13.9548 2.31794 14.6898L10.8229 19.0998C11.0329 20.4648 12.1879 21.4098 13.4479 21.4098C14.9179 21.4098 16.1779 20.2548 16.1779 18.7848L25.5229 13.7448C26.0479 14.1648 26.5729 14.2698 27.2029 14.2698C28.6729 14.2698 29.9329 13.0098 29.9329 11.5398C29.7229 10.2798 28.5679 9.12483 27.0979 9.12483Z" fill="#4285FD"/>
<path d="M47.5734 16.2648C47.0484 16.7898 46.3134 17.3148 45.3684 17.6298C44.4234 17.9448 43.3734 18.1548 42.2184 18.1548C40.4334 18.1548 38.9634 17.6298 37.9134 16.4748C36.8634 15.4248 36.2334 13.8498 36.2334 11.9598V10.8048C36.2334 9.43982 36.4434 8.28482 36.9684 7.33982C37.4934 6.28982 38.1234 5.55482 38.9634 5.02982C39.8034 4.50482 40.8534 4.18982 42.0084 4.18982C43.6884 4.18982 45.0534 4.60982 45.9984 5.34482C46.9434 6.07982 47.4684 7.23482 47.6784 8.80982H44.5284C44.4234 8.07482 44.2134 7.54982 43.7934 7.23482C43.3734 6.91982 42.8484 6.70982 42.2184 6.70982C41.3784 6.70982 40.7484 7.02482 40.3284 7.75982C39.9084 8.49482 39.6984 9.43982 39.5934 10.6998V11.5398C39.5934 12.9048 39.8034 13.9548 40.3284 14.5848C40.7484 15.2148 41.4834 15.6348 42.5334 15.6348C43.3734 15.6348 44.0034 15.4248 44.4234 15.1098V13.0098H42.1134V10.8048H47.6784V16.2648H47.5734Z" fill="#4285FD"/>
<path d="M49.4634 17.9449H52.6134V7.86486H49.4634V17.9449ZM49.3584 5.23986C49.3584 4.81986 49.5684 4.39986 49.8834 4.08486C50.1984 3.76986 50.6184 3.66486 51.1434 3.66486C51.6684 3.66486 52.0884 3.76986 52.4034 4.08486C52.7184 4.39986 52.9284 4.71486 52.9284 5.23986C52.9284 5.65986 52.7184 6.07986 52.4034 6.39486C52.0884 6.70986 51.6684 6.81486 51.1434 6.81486C50.6184 6.81486 50.1984 6.70986 49.8834 6.39486C49.4634 6.07986 49.3584 5.76486 49.3584 5.23986Z" fill="#4285FD"/>
<path d="M58.2829 5.34483V7.86483H59.9629V10.0698H58.2829V14.6898C58.2829 15.1098 58.3879 15.3198 58.4929 15.5298C58.5979 15.6348 58.9129 15.7398 59.3329 15.7398C59.6479 15.7398 59.8579 15.7398 60.0679 15.6348V17.8398C59.5429 18.0498 58.9129 18.1548 58.2829 18.1548C57.2329 18.1548 56.3929 17.9448 55.8679 17.4198C55.3429 16.8948 55.1329 16.1598 55.1329 15.1098V10.0698H53.8729V7.86483H55.1329V5.34483H58.2829Z" fill="#4285FD"/>
<path d="M64.5829 12.1698V15.4248H66.6829C67.3129 15.4248 67.7329 15.3198 68.0479 15.0048C68.3629 14.6898 68.5729 14.3748 68.5729 13.8498C68.5729 12.6948 68.0479 12.1698 66.8929 12.1698H64.5829ZM64.5829 10.0698H66.2629C66.9979 10.0698 67.5229 9.96483 67.8379 9.64983C68.1529 9.43983 68.2579 9.01983 68.2579 8.49483C68.2579 7.96983 68.0479 7.54983 67.7329 7.23483C67.4179 7.02483 66.8929 6.81483 66.1579 6.81483H64.5829V10.0698ZM61.3279 17.9448V4.39983H66.2629C68.0479 4.39983 69.3079 4.71483 70.2529 5.34483C71.1979 5.97483 71.6179 6.91983 71.6179 8.17983C71.6179 8.91483 71.4079 9.43983 71.0929 9.96483C70.7779 10.4898 70.2529 10.8048 69.6229 11.0148C70.3579 11.2248 70.8829 11.5398 71.3029 12.0648C71.7229 12.5898 71.8279 13.2198 71.8279 13.9548C71.8279 15.3198 71.4079 16.2648 70.5679 16.9998C69.728 17.6298 68.4679 18.0498 66.7879 18.0498L61.3279 17.9448Z" fill="#4285FD"/>
<path d="M76.2379 13.0098C76.2379 13.9548 76.3429 14.5848 76.6579 15.1098C76.9729 15.5298 77.3929 15.7398 77.9179 15.7398C79.0729 15.7398 79.5979 14.8998 79.5979 13.1148V12.7998C79.5979 11.0148 78.9679 10.0698 77.8129 10.0698C76.7629 10.0698 76.2379 10.8048 76.1329 12.3798L76.2379 13.0098ZM73.0879 12.7998C73.0879 11.7498 73.2979 10.9098 73.7179 10.0698C74.1379 9.33483 74.6629 8.70483 75.3979 8.28483C76.1329 7.86483 76.9729 7.65483 78.0229 7.65483C79.4929 7.65483 80.7529 8.07483 81.5929 9.01983C82.4329 9.96483 82.8529 11.2248 82.8529 12.7998V13.0098C82.8529 14.5848 82.4329 15.8448 81.4879 16.7898C80.6479 17.7348 79.3879 18.1548 77.9179 18.1548C76.4479 18.1548 75.2929 17.7348 74.4529 16.8948C73.6129 16.0548 73.0879 14.8998 73.0879 13.4298V12.7998Z" fill="#4285FD"/>
<path d="M87.0533 13.0098C87.0533 13.9548 87.1583 14.5848 87.4733 15.1098C87.7883 15.5298 88.2083 15.7398 88.7333 15.7398C89.8883 15.7398 90.4133 14.8998 90.4133 13.1148V12.7998C90.4133 11.0148 89.7833 10.0698 88.6283 10.0698C87.5783 10.0698 87.0533 10.8048 86.9483 12.3798L87.0533 13.0098ZM83.9033 12.7998C83.9033 11.7498 84.1133 10.9098 84.5333 10.0698C84.9533 9.33485 85.4783 8.70485 86.2133 8.28485C86.9483 7.86485 87.7883 7.65485 88.8383 7.65485C90.3083 7.65485 91.5683 8.07485 92.4083 9.01985C93.2483 9.96485 93.6683 11.2248 93.6683 12.7998V13.0098C93.6683 14.5848 93.2483 15.8448 92.3033 16.7898C91.4633 17.7348 90.2033 18.1548 88.7333 18.1548C87.2633 18.1548 86.1083 17.7348 85.2683 16.8948C84.4283 16.0548 83.9033 14.8998 83.9033 13.4298V12.7998Z" fill="#4285FD"/>
<path d="M99.1282 14.2699L98.1832 15.1099V17.9449H95.0332V3.66486H98.1832V11.2249L98.4982 10.8049L100.913 7.86486H104.693L101.123 12.0649L104.903 17.9449H101.333L99.1282 14.2699Z" fill="#4285FD"/>
</svg>

<svg xmlns="http://www.w3.org/2000/svg" width="105" height="22" fill="none"><path fill="#4285FD" d="M13.343 18.05c.525 0 .84.42.84.84 0 .525-.42.84-.84.84a.83.83 0 0 1-.84-.84c0-.42.315-.84.84-.84m13.755-5.355a.83.83 0 0 1-.84-.84c0-.42.42-.84.84-.84.525 0 .84.42.84.84s-.42.84-.84.84m0-3.57c-1.47 0-2.73 1.26-2.73 2.73 0 .315 0 .63.105.84l-8.925 4.725a2.74 2.74 0 0 0-2.205-1.155c-1.05 0-1.995.63-2.415 1.47l-7.98-4.2c-.84-.42-1.47-1.89-1.365-3.15 0-.63.315-1.155.63-1.365a.9.9 0 0 1 .735 0h.105c2.1 1.155 9.135 4.725 9.345 4.935.42.21.735.315 1.47-.105l14.385-7.455c.21-.105.42-.315.42-.63 0-.42-.42-.63-.42-.63-.84-.42-2.1-.945-3.255-1.575a555 555 0 0 0-6.93-3.255c-1.155-.63-1.995-.105-2.205 0l-.315.105C9.668 3.35 1.793 7.235 1.373 7.445.533 7.97.113 8.915.008 10.07c-.105 1.89.84 3.885 2.31 4.62l8.505 4.41c.21 1.365 1.365 2.31 2.625 2.31 1.47 0 2.73-1.155 2.73-2.625l9.345-5.04c.525.42 1.05.525 1.68.525 1.47 0 2.73-1.26 2.73-2.73-.21-1.26-1.365-2.415-2.835-2.415M47.573 16.265a5.66 5.66 0 0 1-2.205 1.365 9.9 9.9 0 0 1-3.15.525c-1.785 0-3.255-.525-4.305-1.68-1.05-1.05-1.68-2.625-1.68-4.515v-1.155c0-1.365.21-2.52.735-3.465.525-1.05 1.155-1.785 1.995-2.31s1.89-.84 3.045-.84c1.68 0 3.045.42 3.99 1.155s1.47 1.89 1.68 3.465h-3.15c-.105-.735-.315-1.26-.735-1.575a2.58 2.58 0 0 0-1.575-.525c-.84 0-1.47.315-1.89 1.05s-.63 1.68-.735 2.94v.84c0 1.365.21 2.415.735 3.045.42.63 1.155 1.05 2.205 1.05.84 0 1.47-.21 1.89-.525v-2.1h-2.31v-2.205h5.565v5.46zM49.463 17.945h3.15V7.865h-3.15zM49.358 5.24c0-.42.21-.84.525-1.155s.735-.42 1.26-.42.945.105 1.26.42.525.63.525 1.155c0 .42-.21.84-.525 1.155s-.735.42-1.26.42-.945-.105-1.26-.42c-.42-.315-.525-.63-.525-1.155M58.283 5.345v2.52h1.68v2.205h-1.68v4.62c0 .42.105.63.21.84.105.105.42.21.84.21.315 0 .525 0 .735-.105v2.205c-.525.21-1.155.315-1.785.315-1.05 0-1.89-.21-2.415-.735s-.735-1.26-.735-2.31v-5.04h-1.26V7.865h1.26v-2.52zM64.583 12.17v3.255h2.1c.63 0 1.05-.105 1.365-.42s.525-.63.525-1.155c0-1.155-.525-1.68-1.68-1.68zm0-2.1h1.68c.735 0 1.26-.105 1.575-.42.315-.21.42-.63.42-1.155s-.21-.945-.525-1.26c-.315-.21-.84-.42-1.575-.42h-1.575zm-3.255 7.875V4.4h4.935c1.785 0 3.045.315 3.99.945s1.365 1.575 1.365 2.835c0 .735-.21 1.26-.525 1.785s-.84.84-1.47 1.05c.735.21 1.26.525 1.68 1.05s.525 1.155.525 1.89c0 1.365-.42 2.31-1.26 3.045-.84.63-2.1 1.05-3.78 1.05zM76.238 13.01c0 .945.105 1.575.42 2.1q.473.63 1.26.63c1.155 0 1.68-.84 1.68-2.625V12.8c0-1.785-.63-2.73-1.785-2.73-1.05 0-1.575.735-1.68 2.31zm-3.15-.21c0-1.05.21-1.89.63-2.73.42-.735.945-1.365 1.68-1.785s1.575-.63 2.625-.63c1.47 0 2.73.42 3.57 1.365q1.26 1.418 1.26 3.78v.21c0 1.575-.42 2.835-1.365 3.78-.84.945-2.1 1.365-3.57 1.365q-2.205 0-3.465-1.26c-.84-.84-1.365-1.995-1.365-3.465zM87.053 13.01c0 .945.105 1.575.42 2.1q.472.63 1.26.63c1.155 0 1.68-.84 1.68-2.625V12.8c0-1.785-.63-2.73-1.785-2.73-1.05 0-1.575.735-1.68 2.31zm-3.15-.21c0-1.05.21-1.89.63-2.73.42-.735.945-1.365 1.68-1.785s1.575-.63 2.625-.63c1.47 0 2.73.42 3.57 1.365q1.26 1.418 1.26 3.78v.21c0 1.575-.42 2.835-1.365 3.78-.84.945-2.1 1.365-3.57 1.365q-2.205 0-3.465-1.26c-.84-.84-1.365-1.995-1.365-3.465zM99.128 14.27l-.945.84v2.835h-3.15V3.665h3.15v7.56l.315-.42 2.415-2.94h3.78l-3.57 4.2 3.78 5.88h-3.57z"/></svg>
